teeny/solid/cart.svg

<svg width="15" height="15" viewBox="0 0 15 15" fill="none" xmlns="http://www.w3.org/2000/svg">
<path d="M0.978822 0.356323L0.0209961 0.643671L3.12789 11H14.9999V4.5C14.9999 3.11929 13.8806 2 12.4999 2H1.47192L0.978822 0.356323Z" fill="black"/>
<path fill-rule="evenodd" clip-rule="evenodd" d="M5.5 12C4.67157 12 4 12.6716 4 13.5C4 14.3284 4.67157 15 5.5 15C6.32843 15 7 14.3284 7 13.5C7 12.6716 6.32843 12 5.5 12ZM5 13.5C5 13.2239 5.22386 13 5.5 13C5.77614 13 6 13.2239 6 13.5C6 13.7761 5.77614 14 5.5 14C5.22386 14 5 13.7761 5 13.5Z" fill="black"/>
<path fill-rule="evenodd" clip-rule="evenodd" d="M12.5 12C11.6716 12 11 12.6716 11 13.5C11 14.3284 11.6716 15 12.5 15C13.3284 15 14 14.3284 14 13.5C14 12.6716 13.3284 12 12.5 12ZM12 13.5C12 13.2239 12.2239 13 12.5 13C12.7761 13 13 13.2239 13 13.5C13 13.7761 12.7761 14 12.5 14C12.2239 14 12 13.7761 12 13.5Z" fill="black"/>
</svg>

<svg viewBox="0 0 15 15" xmlns="http://www.w3.org/2000/svg"><g><path d="M.97.35L.01.63l3.1 10.35h11.87v-6.5c0-1.39-1.12-2.5-2.5-2.5H1.45L.95.33Z"/><g fill-rule="evenodd"><path d="M5.5 12c-.83 0-1.5.67-1.5 1.5 0 .82.67 1.5 1.5 1.5 .82 0 1.5-.68 1.5-1.5 0-.83-.68-1.5-1.5-1.5ZM5 13.5c0-.28.22-.5.5-.5 .27 0 .5.22.5.5 0 .27-.23.5-.5.5 -.28 0-.5-.23-.5-.5Z"/><path d="M12.5 12c-.83 0-1.5.67-1.5 1.5 0 .82.67 1.5 1.5 1.5 .82 0 1.5-.68 1.5-1.5 0-.83-.68-1.5-1.5-1.5Zm-.5 1.5c0-.28.22-.5.5-.5 .27 0 .5.22.5.5 0 .27-.23.5-.5.5 -.28 0-.5-.23-.5-.5Z"/></g></g></svg>
